dist/img/logo_welcome.svg

<svg width="744" height="112" viewBox="0 0 744 112" fill="none" xmlns="http://www.w3.org/2000/svg">
<path fill-rule="evenodd" clip-rule="evenodd" d="M109.375 0H139.756L71.1766 65.9475L115.936 110.782H86.7768L44.3129 65.9475L109.375 0ZM128.867 23.8606H220.915V111.306H128.867V23.8606ZM151.879 41.3498V93.8172H197.903V41.3498H151.879ZM234.726 23.8613H258.352L278.602 79.1269L298.853 23.8613H322.479L342.729 79.1269L362.98 23.8613H386.605L354.542 111.307H330.916L310.666 56.0413L290.415 111.307H266.79L234.726 23.8613ZM423.68 23.8618H399.517V111.308H423.68V23.8618ZM55.2288 23.8613H31.5593L0 111.307H23.6695L55.2288 23.8613ZM535.811 23.8613H512.142L499.6 58.6137L466.299 23.8613H436.858L481.019 67.5841H496.362L480.583 111.307H504.252L535.811 23.8613Z" fill="#F05634"/>
<path d="M593.34 23.8613V30.7649H568.027V62.9817H586.436V50.3251H577.231V43.4215H593.34V69.8853H561.123V23.8613H593.34Z" fill="#181818"/>
<path d="M599.13 53.7769C599.13 49.3279 600.587 45.5386 603.502 42.409C606.417 39.2486 609.946 37.6685 614.088 37.6685C618.107 37.6685 621.559 39.1566 624.443 42.1328V37.6685H631.347V69.8853H624.443V65.421C621.559 68.3972 618.107 69.8853 614.088 69.8853C609.946 69.8853 606.417 68.3205 603.502 65.1909C600.587 62.0305 599.13 58.2259 599.13 53.7769ZM606.034 53.7769C606.034 56.3236 606.923 58.502 608.703 60.3123C610.513 62.0919 612.692 62.9817 615.238 62.9817C617.785 62.9817 619.948 62.0919 621.728 60.3123C623.538 58.502 624.443 56.3236 624.443 53.7769C624.443 51.2302 623.538 49.0671 621.728 47.2875C619.948 45.4772 617.785 44.5721 615.238 44.5721C612.692 44.5721 610.513 45.4772 608.703 47.2875C606.923 49.0671 606.034 51.2302 606.034 53.7769Z" fill="#181818"/>
<path d="M676.257 37.6685C676.902 37.6685 677.439 37.8986 677.868 38.3588C678.328 38.7884 678.558 39.3253 678.558 39.9697V69.8853H671.655V44.5721H661.299V69.8853H654.396V44.5721H644.04V69.8853H637.137V37.6685H676.257Z" fill="#181818"/>
<path d="M689.116 42.3629C692.246 39.2333 696.05 37.6685 700.53 37.6685C704.979 37.6685 708.768 39.2333 711.898 42.3629C715.027 45.4926 716.592 49.2819 716.592 53.7309C716.592 54.9582 716.47 56.1241 716.224 57.2287H691.923C692.353 58.3333 693.043 59.3458 693.994 60.2663C695.774 62.0766 697.937 62.9817 700.484 62.9817C703.031 62.9817 705.209 62.0766 707.019 60.2663C707.265 60.0208 707.495 59.7754 707.71 59.5299H715.58C714.782 61.5856 713.555 63.4573 711.898 65.1448C708.768 68.3052 704.979 69.8853 700.53 69.8853C696.05 69.8853 692.23 68.3052 689.07 65.1448C685.94 61.9845 684.375 58.1799 684.375 53.7309C684.375 49.2819 685.956 45.4926 689.116 42.3629ZM691.923 50.3251H709.044C708.615 49.1898 707.94 48.162 707.019 47.2415C705.209 45.4619 703.031 44.5721 700.484 44.5721C697.937 44.5721 695.774 45.4619 693.994 47.2415C693.043 48.162 692.353 49.1898 691.923 50.3251Z" fill="#181818"/>
<path d="M743.093 37.6685V44.5721H728.734L743.093 62.9817V69.8853H720.081V62.9817H734.947L720.081 44.5721V37.6685H743.093Z" fill="#181818"/>
</svg>

<svg width="744" height="112" fill="none" xmlns="http://www.w3.org/2000/svg"><path fill-rule="evenodd" clip-rule="evenodd" d="M109.375 0h30.381l-68.58 65.948 44.76 44.834h-29.16L44.314 65.948 109.375 0zm19.492 23.86h92.048v87.446h-92.048V23.861zm23.012 17.49v52.467h46.024V41.35h-46.024zm82.847-17.489h23.626l20.25 55.266 20.251-55.266h23.626l20.25 55.266L362.98 23.86h23.625l-32.063 87.446h-23.626l-20.25-55.266-20.251 55.266H266.79L234.726 23.86zm188.954 0h-24.163v87.447h24.163V23.862zm-368.451 0h-23.67L0 111.307h23.67l31.559-87.446zm480.582 0h-23.669L499.6 58.614 466.299 23.86h-29.441l44.161 43.723h15.343l-15.779 43.723h23.669l31.559-87.446z" fill="#F05634"/><path d="M593.34 23.861v6.904h-25.313v32.217h18.409V50.325h-9.205v-6.904h16.109v26.464h-32.217V23.861h32.217zm5.79 29.916c0-4.45 1.457-8.238 4.372-11.368 2.915-3.16 6.444-4.74 10.586-4.74 4.019 0 7.471 1.488 10.355 4.464v-4.465h6.904v32.217h-6.904v-4.464c-2.884 2.976-6.336 4.464-10.355 4.464-4.142 0-7.671-1.565-10.586-4.694-2.915-3.16-4.372-6.965-4.372-11.414zm6.904 0c0 2.547.889 4.725 2.669 6.535 1.81 1.78 3.989 2.67 6.535 2.67 2.547 0 4.71-.89 6.49-2.67 1.81-1.81 2.715-3.988 2.715-6.535s-.905-4.71-2.715-6.49c-1.78-1.81-3.943-2.715-6.49-2.715-2.546 0-4.725.905-6.535 2.715-1.78 1.78-2.669 3.943-2.669 6.49zm70.223-16.108c.645 0 1.182.23 1.611.69.46.43.69.966.69 1.61v29.916h-6.903V44.572h-10.356v25.313h-6.903V44.572H644.04v25.313h-6.903V37.668h39.12zm12.859 4.694c3.13-3.13 6.934-4.694 11.414-4.694 4.449 0 8.238 1.564 11.368 4.694 3.129 3.13 4.694 6.919 4.694 11.368 0 1.227-.122 2.393-.368 3.498h-24.301c.43 1.104 1.12 2.117 2.071 3.037 1.78 1.81 3.943 2.716 6.49 2.716s4.725-.905 6.535-2.716c.246-.245.476-.49.691-.736h7.87c-.798 2.056-2.025 3.927-3.682 5.615-3.13 3.16-6.919 4.74-11.368 4.74-4.48 0-8.3-1.58-11.46-4.74-3.13-3.16-4.695-6.965-4.695-11.414 0-4.45 1.581-8.238 4.741-11.368zm2.807 7.962h17.121c-.429-1.135-1.104-2.163-2.025-3.084-1.81-1.78-3.988-2.669-6.535-2.669s-4.71.89-6.49 2.67c-.951.92-1.641 1.948-2.071 3.083zm51.17-12.656v6.903h-14.359l14.359 18.41v6.903h-23.012v-6.903h14.866l-14.866-18.41v-6.904h23.012z" fill="#181818"/></svg>
